X: 12
M: C
L: 1/8
K: G
d2dc B2ge | d2u(dc) vBGBc | d2dc B2ge | d4 d2 :| Bd |
c2cA B2BG | A2AG FGAB | c2cA BGGB |[1 A2d2 G3B :|[2 A2d2 G2 |]
kens wha made dem as dey wir a lok a' fiddlers frae different
places at guid ta da whaling.  We do ken at Willafjord is
played be fiddlers in Newfoundland an Cape Breton an dat dere
dey \"ose muckle da sam kind o' bow strokes as we d\"o.


